icons/svg/24x24/book/outline.svg

<svg xmlns="http://www.w3.org/2000/svg" width="24" height="24" viewBox="0 0 24 24">
  <path fill-rule="evenodd" d="M17,20 L17,18 L7,18 C6.447,18 6,18.447 6,19 C6,19.553 6.447,20 7,20 L17,20 Z M6,16 L18,16 L18,4 L7,4 C6.447,4 6,4.447 6,5 L6,16 Z M19,17.723 L19,20 C19.553,20 20,20.447 20,21 C20,21.553 19.553,22 19,22 L7,22 C5.343,22 4,20.657 4,19 L4,5 C4,3.343 5.343,2 7,2 L18,2 C19.104,2 20,2.896 20,4 L20,16 C20,16.738 19.596,17.376 19,17.723 L19,17.723 Z M17,7.5 C17,8.328 16.328,9 15.5,9 L8.5,9 C7.672,9 7,8.328 7,7.5 C7,6.672 7.672,6 8.5,6 L15.5,6 C16.328,6 17,6.672 17,7.5 L17,7.5 Z"/>
</svg>

<svg width="24" height="24" fill="none" xmlns="http://www.w3.org/2000/svg">
  <path fill-rule="evenodd" clip-rule="evenodd" d="M17 20v-2H7a1 1 0 100 2h10zM6 16h12V4H7a1 1 0 00-1 1v11zm13 1.723V20a1 1 0 110 2H7a3 3 0 01-3-3V5a3 3 0 013-3h11a2 2 0 012 2v12c0 .738-.404 1.376-1 1.723zM17 7.5A1.5 1.5 0 0115.5 9h-7a1.5 1.5 0 010-3h7A1.5 1.5 0 0117 7.5z" fill="#000"/>
</svg>
